Other-Icons/16x16-el_light/places/folder-mail.svg

<?xml version="1.0" encoding="UTF-8" standalone="no"?>
<svg
   xmlns:dc="http://purl.org/dc/elements/1.1/"
   xmlns:cc="http://creativecommons.org/ns#"
   xmlns:rdf="http://www.w3.org/1999/02/22-rdf-syntax-ns#"
   xmlns:svg="http://www.w3.org/2000/svg"
   xmlns="http://www.w3.org/2000/svg"
   xmlns:sodipodi="http://sodipodi.sourceforge.net/DTD/sodipodi-0.dtd"
   xmlns:inkscape="http://www.inkscape.org/namespaces/inkscape"
   viewBox="0 0 16 16"
   version="1.1"
   id="svg5"
   sodipodi:docname="folder-mail.svg"
   inkscape:version="0.92.4 5da689c313, 2019-01-14">
  <metadata
     id="metadata9">
    <rdf:RDF>
      <cc:Work
         rdf:about="">
        <dc:format>image/svg+xml</dc:format>
        <dc:type
           rdf:resource="http://purl.org/dc/dcmitype/StillImage" />
      </cc:Work>
    </rdf:RDF>
  </metadata>
  <sodipodi:namedview
     pagecolor="#ffffff"
     bordercolor="#666666"
     borderopacity="1"
     objecttolerance="10"
     gridtolerance="10"
     guidetolerance="10"
     inkscape:pageopacity="0"
     inkscape:pageshadow="2"
     inkscape:window-width="640"
     inkscape:window-height="506"
     id="namedview7"
     showgrid="false"
     inkscape:zoom="14.75"
     inkscape:cx="8"
     inkscape:cy="8"
     inkscape:window-x="434"
     inkscape:window-y="107"
     inkscape:window-maximized="0"
     inkscape:current-layer="svg5" />
  <defs
     id="defs3051">
    <style
       type="text/css"
       id="current-color-scheme">
      .ColorScheme-Text {
        color:#4d4d4d;
      }
      </style>
  </defs>
  <path
     style="fill:#6e6e6e;fill-opacity:1;stroke:none"
     d="M 0 2 L 0 14 L 16 14 L 16 2 L 0 2 z M 1.4140625 3 L 14.585938 3 L 8 9.5859375 L 1.4140625 3 z M 1 4 L 5 8 L 1 12 L 1 4 z M 15 4 L 15 12 L 11 8 L 15 4 z M 5.7070312 8.7070312 L 8 11 L 10.292969 8.7070312 L 14.585938 13 L 1.4140625 13 L 5.7070312 8.7070312 z "
     id="rect4144"
     class="ColorScheme-Text" />
</svg>

<svg xmlns="http://www.w3.org/2000/svg" viewBox="0 0 16 16"><path d="M0 2v12h16V2H0zm1.414 1h13.172L8 9.586 1.414 3zM1 4l4 4-4 4V4zm14 0v8l-4-4 4-4zM5.707 8.707L8 11l2.293-2.293L14.586 13H1.414l4.293-4.293z" fill="#6e6e6e" color="#4d4d4d"/></svg>
